flaticon/religion/paganism.svg

<svg xmlns="http://www.w3.org/2000/svg" width="32" height="32" viewBox="0 0 24 24">
    <path d="M 12 0 C 5.382812 0 0 5.382812 0 12 C 0 18.617188 5.382812 24 12 24 C 18.617188 24 24 18.617188 24 12 C 24 5.382812 18.617188 0 12 0 Z M 22.199219 7.449219 L 14.417969 7.449219 L 12.433594 0.839844 C 16.789062 1.007812 20.507812 3.675781 22.199219 7.449219 Z M 8.285156 14.648438 L 11.324219 17.332031 L 6.519531 20.535156 Z M 7.867188 13.167969 L 2.332031 8.277344 L 9.332031 8.277344 Z M 8.546875 13.773438 L 10.199219 8.277344 L 13.800781 8.277344 L 15.453125 13.773438 L 12 16.828125 Z M 15.714844 14.648438 L 17.480469 20.535156 L 12.675781 17.332031 Z M 14.667969 8.277344 L 21.667969 8.277344 L 16.132812 13.167969 Z M 13.554688 7.449219 L 10.445312 7.449219 L 12 2.269531 Z M 11.566406 0.839844 L 9.582031 7.449219 L 1.800781 7.449219 C 3.492188 3.675781 7.210938 1.007812 11.566406 0.839844 Z M 0.828125 12 C 0.828125 10.792969 1.023438 9.628906 1.378906 8.535156 L 7.601562 14.042969 L 5.492188 21.074219 C 2.671875 19.042969 0.828125 15.734375 0.828125 12 Z M 12 23.171875 C 9.941406 23.171875 8.015625 22.609375 6.359375 21.636719 L 12 17.875 L 17.640625 21.636719 C 15.984375 22.609375 14.058594 23.171875 12 23.171875 Z M 18.507812 21.074219 L 16.398438 14.042969 L 22.621094 8.535156 C 22.976562 9.628906 23.171875 10.792969 23.171875 12 C 23.171875 15.734375 21.328125 19.042969 18.507812 21.074219 Z M 18.507812 21.074219"/>
</svg>

<svg xmlns="http://www.w3.org/2000/svg" width="32" height="32" viewBox="0 0 24 24">
    <path d="M12 0C5.383 0 0 5.383 0 12s5.383 12 12 12 12-5.383 12-12S18.617 0 12 0zm10.2 7.45h-7.782L12.434.84c4.355.168 8.074 2.836 9.765 6.61zM8.284 14.647l3.04 2.684-4.805 3.203zm-.418-1.48l-5.535-4.89h7zm.68.605l1.652-5.496h3.602l1.652 5.496L12 16.828zm7.168.875l1.765 5.887-4.804-3.203zm-1.047-6.37h7l-5.535 4.89zm-1.113-.829h-3.11L12 2.27zM11.566.84L9.582 7.45H1.801C3.492 3.676 7.21 1.008 11.566.84zM.828 12c0-1.207.195-2.371.55-3.465l6.224 5.508-2.11 7.031C2.672 19.043.828 15.734.828 12zM12 23.172c-2.059 0-3.984-.563-5.64-1.535L12 17.875l5.64 3.762A11.102 11.102 0 0 1 12 23.172zm6.508-2.098l-2.11-7.031 6.223-5.508c.356 1.094.55 2.258.55 3.465 0 3.734-1.843 7.043-4.663 9.074zm0 0"/>
</svg>
